build/assets/images/img-icon.svg

<svg xmlns="http://www.w3.org/2000/svg" viewBox="0 0 34.61 34.46"><defs><style>.a{fill:#00bfa5}</style></defs><circle class="a" cx="6.85" cy="7.33" r="3.05"/><path class="a" d="M17.75 8.88a1.09 1.09 0 0 0-2-.05l-2.87 4.59a1.84 1.84 0 0 1-2.59.66 2.2 2.2 0 0 0-2.82.49l-2.89 3.36c-.71.84-.39 1.52.71 1.52h16.38a1.08 1.08 0 0 0 1-1.75z"/><path class="a" d="M27.5 20.7V1a1 1 0 0 0-1-1H1a1 1 0 0 0-1 1v25.12a1 1 0 0 0 1 1h19.85a6.65 6.65 0 0 1 6.65-6.42zM2.63 2.8h21.94v17.75H2.63V2.8z"/><path class="a" d="M27.5 20.93a6.42 6.42 0 1 0 6.42 6.42 6.42 6.42 0 0 0-6.42-6.42zm4.09 7h-3.5v3.5h-1.17v-3.5h-3.5v-1.16h3.5v-3.5h1.17v3.5h3.5v1.17z"/><circle cx="27.5" cy="27.35" r="6.66" fill="none" stroke="#fff" stroke-miterlimit="10" stroke-width=".91"/></svg>

<svg xmlns="http://www.w3.org/2000/svg" viewBox="0 0 34.61 34.46">
  <defs>
    <style>
      .a {
        fill: #00bfa5;
      }

      .b {
        fill: none;
        stroke: #fff;
        stroke-miterlimit: 10;
        stroke-width: 0.91px;
      }
    </style>
  </defs>
  <title>image-pic</title>
  <g>
    <circle class="a" cx="6.85" cy="7.33" r="3.05"/>
    <path class="a" d="M17.75,8.88a1.09,1.09,0,0,0-2-.05l-2.87,4.59a1.84,1.84,0,0,1-2.59.66,2.2,2.2,0,0,0-2.82.49L4.58,17.93c-0.71.84-.39,1.52,0.71,1.52H21.67a1.08,1.08,0,0,0,1-1.75Z"/>
  </g>
  <path class="a" d="M27.5,20.7V1a1,1,0,0,0-1-1H1A1,1,0,0,0,0,1V26.12a1,1,0,0,0,1,1H20.85A6.65,6.65,0,0,1,27.5,20.7ZM2.63,2.8H24.57V20.55H2.63V2.8Z"/>
  <g>
    <path class="a" d="M27.5,20.93a6.42,6.42,0,1,0,6.42,6.42A6.42,6.42,0,0,0,27.5,20.93Zm4.09,7h-3.5v3.5H26.92v-3.5h-3.5V26.77h3.5v-3.5h1.17v3.5h3.5v1.17Z"/>
    <circle class="b" cx="27.5" cy="27.35" r="6.66"/>
  </g>
</svg>
